build/img/links/instagram.svg

<svg width="19" height="19" viewBox="0 0 19 19" fill="none" xmlns="http://www.w3.org/2000/svg">
<path d="M9.49885 4.68516C8.22139 4.68516 6.99625 5.19263 6.09295 6.09593C5.18965 6.99923 4.68218 8.22437 4.68218 9.50182C4.68218 10.7793 5.18965 12.0044 6.09295 12.9077C6.99625 13.811 8.22139 14.3185 9.49885 14.3185C10.7763 14.3185 12.0014 13.811 12.9047 12.9077C13.808 12.0044 14.3155 10.7793 14.3155 9.50182C14.3155 8.22437 13.808 6.99923 12.9047 6.09593C12.0014 5.19263 10.7763 4.68516 9.49885 4.68516ZM9.49885 12.6299C8.66894 12.6299 7.87302 12.3003 7.28619 11.7134C6.69936 11.1266 6.36968 10.3307 6.36968 9.50078C6.36968 8.67088 6.69936 7.87496 7.28619 7.28813C7.87302 6.7013 8.66894 6.37162 9.49885 6.37162C10.3288 6.37162 11.1247 6.7013 11.7115 7.28813C12.2983 7.87496 12.628 8.67088 12.628 9.50078C12.628 10.3307 12.2983 11.1266 11.7115 11.7134C11.1247 12.3003 10.3288 12.6299 9.49885 12.6299Z" fill="#F3F3F3"/>
<path d="M14.5061 5.63097C15.1263 5.63097 15.6291 5.12823 15.6291 4.50806C15.6291 3.88789 15.1263 3.38514 14.5061 3.38514C13.886 3.38514 13.3832 3.88789 13.3832 4.50806C13.3832 5.12823 13.886 5.63097 14.5061 5.63097Z" fill="#F3F3F3"/>
<path d="M18.3884 3.36628C18.1473 2.74355 17.7788 2.17803 17.3065 1.70592C16.8342 1.23381 16.2685 0.865517 15.6457 0.624609C14.9169 0.351023 14.1469 0.20309 13.3686 0.187109C12.3655 0.143359 12.0478 0.130859 9.50404 0.130859C6.96029 0.130859 6.63425 0.130859 5.63945 0.187109C4.86173 0.202273 4.09233 0.350236 3.36445 0.624609C2.74147 0.865236 2.17567 1.23343 1.70334 1.70558C1.23102 2.17772 0.862608 2.74338 0.621745 3.36628C0.348104 4.09504 0.20051 4.86506 0.185286 5.64336C0.140495 6.64544 0.126953 6.96315 0.126953 9.50794C0.126953 12.0517 0.126953 12.3757 0.185286 13.3725C0.200911 14.1517 0.347786 14.9204 0.621745 15.6507C0.863284 16.2733 1.23205 16.8388 1.70449 17.3108C2.17693 17.7829 2.74264 18.1512 3.36549 18.3923C4.09199 18.6769 4.86172 18.8354 5.64154 18.8611C6.64466 18.9048 6.96237 18.9184 9.50612 18.9184C12.0499 18.9184 12.3759 18.9184 13.3707 18.8611C14.1489 18.8452 14.9189 18.6977 15.6478 18.4246C16.2704 18.1831 16.8359 17.8145 17.3082 17.3423C17.7804 16.8701 18.149 16.3046 18.3905 15.6819C18.6645 14.9527 18.8113 14.184 18.827 13.4048C18.8717 12.4027 18.8853 12.085 18.8853 9.54023C18.8853 6.99544 18.8853 6.67253 18.827 5.67565C18.8148 4.88635 18.6665 4.10508 18.3884 3.36628ZM17.1197 13.2954C17.1129 13.8958 17.0034 14.4905 16.7957 15.0538C16.6393 15.4588 16.3998 15.8267 16.0927 16.1336C15.7855 16.4406 15.4175 16.6799 15.0124 16.8361C14.4553 17.0428 13.8669 17.1524 13.2728 17.16C12.2832 17.2059 12.004 17.2173 9.46654 17.2173C6.92695 17.2173 6.66758 17.2173 5.65925 17.16C5.06542 17.1528 4.47729 17.0432 3.9207 16.8361C3.51413 16.6808 3.14466 16.442 2.83621 16.135C2.52776 15.828 2.2872 15.4596 2.13008 15.0538C1.92533 14.4965 1.81582 13.9088 1.80612 13.3152C1.76133 12.3256 1.75091 12.0465 1.75091 9.50898C1.75091 6.97044 1.75091 6.71107 1.80612 5.70169C1.81285 5.10172 1.92243 4.50734 2.13008 3.9444C2.44779 3.12253 3.09883 2.47565 3.9207 2.16107C4.47757 1.95496 5.06552 1.8454 5.65925 1.83711C6.64987 1.79232 6.928 1.77982 9.46654 1.77982C12.0051 1.77982 12.2655 1.77982 13.2728 1.83711C13.867 1.84426 14.4555 1.95385 15.0124 2.16107C15.4175 2.3176 15.7854 2.55711 16.0925 2.86422C16.3997 3.17134 16.6392 3.53927 16.7957 3.9444C17.0004 4.50164 17.11 5.08936 17.1197 5.68294C17.1645 6.67357 17.1759 6.95169 17.1759 9.49023C17.1759 12.0277 17.1759 12.3007 17.1311 13.2965H17.1197V13.2954Z" fill="#F3F3F3"/>
</svg>

<svg width="19" height="19" fill="none" xmlns="http://www.w3.org/2000/svg"><path d="M9.499 4.685a4.817 4.817 0 100 9.634 4.817 4.817 0 000-9.634zm0 7.945a3.129 3.129 0 110-6.258 3.129 3.129 0 010 6.258zM14.506 5.631a1.123 1.123 0 100-2.246 1.123 1.123 0 000 2.246z" fill="#F3F3F3"/><path d="M18.388 3.366A4.796 4.796 0 0015.646.625a6.881 6.881 0 00-2.277-.438C12.366.143 12.048.131 9.504.131c-2.544 0-2.87 0-3.865.056a6.827 6.827 0 00-2.275.438A4.792 4.792 0 00.622 3.366a6.86 6.86 0 00-.437 2.277C.14 6.645.127 6.963.127 9.508c0 2.544 0 2.868.058 3.865.016.779.163 1.547.437 2.278a4.802 4.802 0 002.743 2.741 6.86 6.86 0 002.277.47c1.003.043 1.32.056 3.864.056 2.544 0 2.87 0 3.865-.057a6.892 6.892 0 002.277-.436 4.807 4.807 0 002.742-2.743 6.86 6.86 0 00.437-2.277c.045-1.002.058-1.32.058-3.865s0-2.867-.058-3.864a6.856 6.856 0 00-.439-2.31zm-1.268 9.93a5.254 5.254 0 01-.324 1.758 3.111 3.111 0 01-1.784 1.782 5.192 5.192 0 01-1.74.324c-.989.046-1.268.057-3.805.057-2.54 0-2.8 0-3.808-.057a5.165 5.165 0 01-1.738-.324 3.11 3.11 0 01-1.79-1.782 5.292 5.292 0 01-.325-1.739c-.045-.99-.055-1.268-.055-3.806 0-2.539 0-2.798.055-3.807.007-.6.116-1.195.324-1.758a3.11 3.11 0 011.79-1.783 5.219 5.219 0 011.74-.324c.99-.045 1.268-.057 3.807-.057 2.538 0 2.798 0 3.806.057a5.167 5.167 0 011.74.324 3.115 3.115 0 011.783 1.783c.204.558.314 1.145.324 1.739.044.99.056 1.269.056 3.807 0 2.538 0 2.81-.045 3.806h-.011z" fill="#F3F3F3"/></svg>
